assets/img/braze_icons/scales-01.svg

<svg fill="none" height="24" viewBox="0 0 24 24" width="24" xmlns="http://www.w3.org/2000/svg"><path clip-rule="evenodd" d="m13 3c0-.55228-.4477-1-1-1s-1 .44772-1 1v4.15302l-5.14608.85768c-.06217.00918-.12291.02413-.18153.04446-.12743.044-.24175.11242-.33844.19889-.07929.07079-.14789.15475-.20221.24981l-3.60489 6.30854c-.1312.2292-.24699.4316-.33095.6524-.07388.1942-.12737.3957-.15961.601-.036634.2333-.036491.4665-.03633.7306l.000022.2036c0 .0029.000012.0059.000038.0088.00474 2.7574 2.2415 4.9912 4.99999 4.9912 2.76143 0 4.99999-2.2386 4.99999-5v-.2231c0-.0095 0-.0192 0-.0289 0-.2445-.0019-.4633-.0363-.6822-.0323-.2053-.0858-.4068-.1596-.601-.084-.2208-.1998-.4232-.331-.6524l-2.8925-5.06189 8.506-1.41767-2.5597 4.47956c-.1313.2292-.247.4316-.331.6524-.0739.1942-.1274.3957-.1596.601-.0366.2333-.0365.4664-.0363.7306v.2036.0088c.0048 2.7574 2.2415 4.9912 5 4.9912 2.7614 0 5-2.2386 5-5v-.2231c0-.0123 0-.0249 0-.0377 0-.2409-.0024-.4571-.0363-.6734-.0323-.2053-.0858-.4068-.1596-.601-.084-.2208-.1998-.4232-.331-.6524l-3.5952-6.29162c-.0363-.0664-.0797-.12786-.1291-.18354-.1869-.21122-.4571-.33626-.7454-.33723l-.0034-.00001c-.062 0-.1232.00574-.1829.01684l-4.8171.80285zm7.2768 10-2.2768-3.98444-2.2768 3.98444zm-11.99999 2-2.27683-3.9844-2.27682 3.9844z" fill="#801ed7" fill-rule="evenodd"/></svg>

<svg width="24" height="24" viewBox="0 0 24 24" fill="none" xmlns="http://www.w3.org/2000/svg">
<path fill-rule="evenodd" clip-rule="evenodd" d="M13 3C13 2.44772 12.5523 2 12 2C11.4477 2 11 2.44772 11 3V7.15302L5.85392 8.0107C5.79175 8.01988 5.73101 8.03483 5.67239 8.05516C5.54496 8.09916 5.43064 8.16758 5.33395 8.25405C5.25466 8.32484 5.18606 8.4088 5.13174 8.50386L1.52685 14.8124C1.39565 15.0416 1.27986 15.244 1.1959 15.4648C1.12202 15.659 1.06853 15.8605 1.03629 16.0658C0.999656 16.2991 0.999799 16.5323 0.99996 16.7964L0.999982 17C0.999982 17.0029 0.999994 17.0059 1.00002 17.0088C1.00476 19.7662 3.24152 22 6.00001 22C8.76144 22 11 19.7614 11 17L11 16.7769C11 16.7674 11 16.7577 11 16.748C11 16.5035 10.9981 16.2847 10.9637 16.0658C10.9314 15.8605 10.8779 15.659 10.8041 15.4648C10.7201 15.244 10.6043 15.0416 10.4731 14.8124L7.5806 9.75051L16.0866 8.33284L13.5269 12.8124C13.3956 13.0416 13.2799 13.244 13.1959 13.4648C13.122 13.659 13.0685 13.8605 13.0363 14.0658C12.9997 14.2991 12.9998 14.5322 13 14.7964L13 15C13 15.0029 13 15.0059 13 15.0088C13.0048 17.7662 15.2415 20 18 20C20.7614 20 23 17.7614 23 15L23 14.7769C23 14.7646 23 14.752 23 14.7392C23 14.4983 22.9976 14.2821 22.9637 14.0658C22.9314 13.8605 22.8779 13.659 22.8041 13.4648C22.7201 13.244 22.6043 13.0416 22.4731 12.8124L18.8779 6.52078C18.8416 6.45438 18.7982 6.39292 18.7488 6.33724C18.5619 6.12602 18.2917 6.00098 18.0034 6.00001L18 6C17.938 6 17.8768 6.00574 17.8171 6.01684L13 6.81969V3ZM20.2768 13L18 9.01556L15.7232 13H20.2768ZM8.27681 15L5.99998 11.0156L3.72316 15H8.27681Z" fill="#801ED7"/>
</svg>
